X: 28114
T: Mrs Agnes Ritchie
R: reel
M: 4/4
K: Gmajor
|:G2GB dBGB|dgfg edcB|A2AB cBAG|FADF AcBA|
G2GB dBGB|dgfg edcB|A2AB cBAG|1 FDEF G2D2:|2 FDEF G2d2||
|:g3f gdBd|gGBd edcB|a2a^g a=gfe|1 aABc ^cdef|
g3f gdBd|gGBd edcB|ceAc BAGB|cAFA GABd:|
[2agfe dcBA|G2GB dBGB|dgfg edcB|A2AB cBAG|FDEFG2||

